X:2
T:Farewell to kingsbridge - Huggins
C:Taken down from Roger Huggins by H.Fl.S.
%%VWML:SBG-1-1-274-0
F:http://www.vwml.org/record/SBG/1/1/274
Z:Original Sibleius Transcription by Martin and Shan Graebe
M:2/4
L:1/8
K:Eb
B/B/ | eB AG | FB2B/B/ | cc BA | B3B/B/ | eB AG |(FB2)B/B/ | (Bc) B=A | !fermata!B3 G/A/|
Bc BA|GB eB | cB AG | F2B/B/ |cB eB | (AG) GF |F>A GF |E2 ||

